X:1
T:The TARDIS Resonance
C:Neoclassical AI
M:4/4
L:1/16
K:Amin
Q:1/4=60
%%score (RH) (LH)

%--- INTRO (Measures 1-8) ---
% Atmosphere: Sparse, cosmic, slow arpeggios.
% RH: High register Am9 arpeggio
% LH: Deep root A in octaves
[CEGc gecA]4 | [CEGc gecA]4 | [CEGc gecA]4 | [CEGc gecA]4 |
[CEGc gecA]4 | [CEGc gecA]4 | [CEGc gecA]4 | [CEGc gecA]4 |

%--- THEME A (Measures 9-16) - AAGOOCH Progression Start: Am9 -> Am7 ---
% Arpeggios become rhythmic and driving.
% Measure 9-12: Am9 (A C E G B)
[CEGBe] [CEGBe] [CEGBe] [CEGBe] | [CEGBe] [CEGBe] [CEGBe] [CEGBe] |
[CEGBe] [CEGBe] [CEGBe] [CEGBe] | [CEGBe] [CEGBe] [CEGBe] [CEGBe] |
% Measure 13-16: Am7 (A C E G)
[CEGc] [CEGc] [CEGc] [CEGc] | [CEGc] [CEGc] [CEGc] [CEGc] |
[CEGc] [CEGc] [CEGc] [CEGc] | [CEGc] [CEGc] [CEGc] [CEGc] |

%--- THEME B (Measures 17-24) - AAGOOCH Progression: G -> Bdim ---
% Measure 17-20: G Major (G B D) - Shift in brightness
[GBDGb] [GBDGb] [GBDGb] [GBDGb] | [GBDGb] [GBDGb] [GBDGb] [GBDGb] |
[GBDGb] [GBDGb] [GBDGb] [GBDGb] | [GBDGb] [GBDGb] [GBDGb] [GBDGb] |
% Measure 21-24: B Diminished (B D F) - Tension build
[BDFb] [BDFb] [BDFb] [BDFb] | [BDFb] [BDFb] [BDFb] [BDFb] |
[BDFb] [BDFb] [BDFb] [BDFb] | [BDFb] [BDFb] [BDFb] [BDFb] |

%--- REPETITION BLOCK (Measures 25-40) ---
% Repeat Themes A and B to ensure length and hypnotic effect
|:
% THEME A REPEATED (Am9 -> Am7)
[CEGBe] [CEGBe] [CEGBe] [CEGBe] | [CEGBe] [CEGBe] [CEGBe] [CEGBe] |
[CEGBe] [CEGBe] [CEGBe] [CEGBe] | [CEGBe] [CEGBe] [CEGBe] [CEGBe] |
[CEGc] [CEGc] [CEGc] [CEGc] | [CEGc] [CEGc] [CEGc] [CEGc] |
[CEGc] [CEGc] [CEGc] [CEGc] | [CEGc] [CEGc] [CEGc] [CEGc] |
% THEME B REPEATED (G -> Bdim)
[GBDGb] [GBDGb] [GBDGb] [GBDGb] | [GBDGb] [GBDGb] [GBDGb] [GBDGb] |
[GBDGb] [GBDGb] [GBDGb] [GBDGb] | [GBDGb] [GBDGb] [GBDGb] [GBDGb] |
[BDFb] [BDFb] [BDFb] [BDFb] | [BDFb] [BDFb] [BDFb] [BDFb] |
[BDFb] [BDFb] [BDFb] [BDFb] | [BDFb] [BDFb] [BDFb] [BDFb] |
:|

%--- VARIATION A (Measures 41-48) ---
% Faster arpeggios (16th notes become 32nd notes)
% LH: Minimalist block chords
L:1/32
[CEGBe]2 [CEGBe]2 [CEGBe]2 [CEGBe]2 | [CEGBe]2 [CEGBe]2 [CEGBe]2 [CEGBe]2 |
[CEGBe]2 [CEGBe]2 [CEGBe]2 [CEGBe]2 | [CEGBe]2 [CEGBe]2 [CEGBe]2 [CEGBe]2 |
[CEGc]2 [CEGc]2 [CEGc]2 [CEGc]2 | [CEGc]2 [CEGc]2 [CEGc]2 [CEGc]2 |
[CEGc]2 [CEGc]2 [CEGc]2 [CEGc]2 | [CEGc]2 [CEGc]2 [CEGc]2 [CEGc]2 |
L:1/16

%--- OUTRO (Measures 49-54) ---
% Dissipation. Return to Intro texture but fading.
% Measure 49-52: Final Am9 resonance
[CEGc gecA]4 | [CEGc gecA]4 | [CEGc gecA]4 | [CEGc gecA]4 |
% Measure 53-54: Single low A sustain and final high chime
[A,,,A,,]4 | [A,,,]4 z4 |]
z8 | z8 |]